assets/img/braze_icons/paragraph-wrap.svg

<svg fill="none" height="24" viewBox="0 0 24 24" width="24" xmlns="http://www.w3.org/2000/svg"><g fill="#801ed7"><path d="m3 5c-.55228 0-1 .44772-1 1s.44772 1 1 1h18c.5523 0 1-.44772 1-1s-.4477-1-1-1z"/><path d="m3 11c-.55228 0-1 .4477-1 1s.44772 1 1 1h15c.5304 0 1.0391.2107 1.4142.5858s.5858.8838.5858 1.4142-.2107 1.0391-.5858 1.4142-.8838.5858-1.4142.5858h-1.5858l.2929-.2929c.3905-.3905.3905-1.0237 0-1.4142s-1.0237-.3905-1.4142 0l-2 2c-.3905.3905-.3905 1.0237 0 1.4142l2 2c.3905.3905 1.0237.3905 1.4142 0s.3905-1.0237 0-1.4142l-.2929-.2929h1.5858c1.0609 0 2.0783-.4214 2.8284-1.1716.7502-.7501 1.1716-1.7675 1.1716-2.8284s-.4214-2.0783-1.1716-2.8284c-.7501-.7502-1.7675-1.1716-2.8284-1.1716z"/><path d="m3 17c-.55228 0-1 .4477-1 1s.44772 1 1 1h7c.5523 0 1-.4477 1-1s-.4477-1-1-1z"/></g></svg>

<svg width="24" height="24" viewBox="0 0 24 24" fill="none" xmlns="http://www.w3.org/2000/svg">
<path d="M3 5C2.44772 5 2 5.44772 2 6C2 6.55228 2.44772 7 3 7H21C21.5523 7 22 6.55228 22 6C22 5.44772 21.5523 5 21 5H3Z" fill="#801ED7"/>
<path d="M3 11C2.44772 11 2 11.4477 2 12C2 12.5523 2.44772 13 3 13H18C18.5304 13 19.0391 13.2107 19.4142 13.5858C19.7893 13.9609 20 14.4696 20 15C20 15.5304 19.7893 16.0391 19.4142 16.4142C19.0391 16.7893 18.5304 17 18 17H16.4142L16.7071 16.7071C17.0976 16.3166 17.0976 15.6834 16.7071 15.2929C16.3166 14.9024 15.6834 14.9024 15.2929 15.2929L13.2929 17.2929C12.9024 17.6834 12.9024 18.3166 13.2929 18.7071L15.2929 20.7071C15.6834 21.0976 16.3166 21.0976 16.7071 20.7071C17.0976 20.3166 17.0976 19.6834 16.7071 19.2929L16.4142 19H18C19.0609 19 20.0783 18.5786 20.8284 17.8284C21.5786 17.0783 22 16.0609 22 15C22 13.9391 21.5786 12.9217 20.8284 12.1716C20.0783 11.4214 19.0609 11 18 11H3Z" fill="#801ED7"/>
<path d="M3 17C2.44772 17 2 17.4477 2 18C2 18.5523 2.44772 19 3 19H10C10.5523 19 11 18.5523 11 18C11 17.4477 10.5523 17 10 17H3Z" fill="#801ED7"/>
</svg>
